static/img/in-field/nav-state-blue-disabled.svg

<svg width="279" height="64" viewBox="0 0 279 64" fill="none" xmlns="http://www.w3.org/2000/svg">
<rect width="278" height="64" transform="translate(0.5)" fill="#0E416C"/>
<g opacity="0.4">
<path fill-rule="evenodd" clip-rule="evenodd" d="M131.5 26.6667V24H155.5V26.6667H131.5ZM131.5 33.3333H155.5V30.6667H131.5V33.3333ZM131.5 40H155.5V37.3333H131.5V40Z" fill="white"/>
</g>
</svg>

<svg width="279" height="64" fill="none" xmlns="http://www.w3.org/2000/svg"><path fill="#0E416C" d="M.5 0h278v64H.5z"/><path fill-rule="evenodd" clip-rule="evenodd" d="M131.5 26.667V24h24v2.667h-24zm0 6.666h24v-2.666h-24v2.666zm0 6.667h24v-2.667h-24V40z" fill="#fff" opacity=".4"/></svg>
